icons/outline/identification.svg

<svg width="24" height="24" viewBox="0 0 24 24" fill="none" xmlns="http://www.w3.org/2000/svg">
<path d="M15 9H18.75M15 12H18.75M15 15H18.75M4.5 19.5H19.5C20.7426 19.5 21.75 18.4926 21.75 17.25V6.75C21.75 5.50736 20.7426 4.5 19.5 4.5H4.5C3.25736 4.5 2.25 5.50736 2.25 6.75V17.25C2.25 18.4926 3.25736 19.5 4.5 19.5ZM10.5 9.375C10.5 10.4105 9.66053 11.25 8.625 11.25C7.58947 11.25 6.75 10.4105 6.75 9.375C6.75 8.33947 7.58947 7.5 8.625 7.5C9.66053 7.5 10.5 8.33947 10.5 9.375ZM11.7939 15.7114C10.8489 16.2147 9.77021 16.5 8.62484 16.5C7.47948 16.5 6.40074 16.2147 5.45581 15.7114C5.92986 14.4207 7.16983 13.5 8.62484 13.5C10.0799 13.5 11.3198 14.4207 11.7939 15.7114Z" stroke="#0F172A" stroke-width="1.5" stroke-linecap="round" stroke-linejoin="round"/>
</svg>

<svg xmlns="http://www.w3.org/2000/svg" fill="none" viewBox="0 0 24 24" stroke-width="1.5" stroke="currentColor" aria-hidden="true" data-slot="icon">
  <path stroke-linecap="round" stroke-linejoin="round" d="M15 9h3.75M15 12h3.75M15 15h3.75M4.5 19.5h15a2.25 2.25 0 0 0 2.25-2.25V6.75A2.25 2.25 0 0 0 19.5 4.5h-15a2.25 2.25 0 0 0-2.25 2.25v10.5A2.25 2.25 0 0 0 4.5 19.5Zm6-10.125a1.875 1.875 0 1 1-3.75 0 1.875 1.875 0 0 1 3.75 0Zm1.294 6.336a6.721 6.721 0 0 1-3.17.789 6.721 6.721 0 0 1-3.168-.789 3.376 3.376 0 0 1 6.338 0Z"/>
</svg>
